X: 32802
T: Poor Timing
R: jig
M: 6/8
K: Gmajor
G2 B def|gdB GAB|A2 B cBA|BdB cBA|
G2 B def|gdB GAB|cAF DFA|AGF G3|
G2 B def|gdB GAB|A2 B cBA|BdB cBA|
G2 B def|gfa gdB|cAF DFA|AGF G3|
|:BdB GBd|gfa gfe|dBd gdB|cBc ABc|
BdB GBd|gfa gfe|dBd cAF|AGF G3:|

